packages/katcn/src/icons/svg/snow-1.svg

<svg width="24" height="25" viewBox="0 0 24 25" fill="none" xmlns="http://www.w3.org/2000/svg">
<path d="M15.2 1.96796C10.9 1.96796 7.4 5.46796 7.4 9.76796C7.4 10.368 7.8 10.768 8.4 10.768C9 10.768 9.4 10.368 9.4 9.76796C9.4 6.56796 12 3.96796 15.2 3.96796C18.4 3.96796 21 6.56796 21 9.76796C21 12.968 18.4 15.568 15.2 15.568H7C4.8 15.568 3 13.768 3 11.568C3 9.76796 4.2 8.16796 5.9 7.76796C6.4 7.56796 6.7 7.06796 6.6 6.56796C6.4 5.96796 5.9 5.66796 5.4 5.86796C2.8 6.56796 1 8.96796 1 11.568C1 14.868 3.7 17.568 7 17.568H15.2C19.5 17.568 23 14.068 23 9.76796C23 5.46796 19.5 1.96796 15.2 1.96796Z" fill="black"/>
<path d="M6.50001 21.168C6.99706 21.168 7.40001 20.765 7.40001 20.268C7.40001 19.7709 6.99706 19.368 6.50001 19.368C6.00295 19.368 5.60001 19.7709 5.60001 20.268C5.60001 20.765 6.00295 21.168 6.50001 21.168Z" fill="black"/>
<path d="M9.29999 23.868C9.79705 23.868 10.2 23.465 10.2 22.968C10.2 22.4709 9.79705 22.068 9.29999 22.068C8.80294 22.068 8.39999 22.4709 8.39999 22.968C8.39999 23.465 8.80294 23.868 9.29999 23.868Z" fill="black"/>
<path d="M12 21.168C12.4971 21.168 12.9 20.765 12.9 20.268C12.9 19.7709 12.4971 19.368 12 19.368C11.5029 19.368 11.1 19.7709 11.1 20.268C11.1 20.765 11.5029 21.168 12 21.168Z" fill="black"/>
<path d="M14.7 23.868C15.197 23.868 15.6 23.465 15.6 22.968C15.6 22.4709 15.197 22.068 14.7 22.068C14.2029 22.068 13.8 22.4709 13.8 22.968C13.8 23.465 14.2029 23.868 14.7 23.868Z" fill="black"/>
<path d="M17.5 21.168C17.9971 21.168 18.4 20.765 18.4 20.268C18.4 19.7709 17.9971 19.368 17.5 19.368C17.0029 19.368 16.6 19.7709 16.6 20.268C16.6 20.765 17.0029 21.168 17.5 21.168Z" fill="black"/>
</svg>

<svg xmlns="http://www.w3.org/2000/svg" fill="none" viewBox="0 0 24 25"><path fill="#000" d="M15.2 1.968c-4.3 0-7.8 3.5-7.8 7.8 0 .6.4 1 1 1s1-.4 1-1c0-3.2 2.6-5.8 5.8-5.8s5.8 2.6 5.8 5.8-2.6 5.8-5.8 5.8H7c-2.2 0-4-1.8-4-4 0-1.8 1.2-3.4 2.9-3.8.5-.2.8-.7.7-1.2-.2-.6-.7-.9-1.2-.7-2.6.7-4.4 3.1-4.4 5.7 0 3.3 2.7 6 6 6h8.2c4.3 0 7.8-3.5 7.8-7.8s-3.5-7.8-7.8-7.8m-8.7 19.2a.9.9 0 1 0 0-1.8.9.9 0 0 0 0 1.8m2.8 2.7a.9.9 0 1 0 0-1.8.9.9 0 0 0 0 1.8m2.7-2.7a.9.9 0 1 0 0-1.8.9.9 0 0 0 0 1.8m2.7 2.7a.9.9 0 1 0 0-1.8.9.9 0 0 0 0 1.8m2.8-2.7a.9.9 0 1 0 0-1.8.9.9 0 0 0 0 1.8"/></svg>
